svg/business/ad_rectangle_fill.svg

<svg xmlns="http://www.w3.org/2000/svg" width="24" height="24" viewBox="0 0 24 24"><g fill="none"><path d="M24,0 L24,24 L0,24 L0,0 L24,0 Z M12.5935,23.2578 L12.5819,23.2595 L12.5109,23.295 L12.4919,23.2987 L12.4767,23.295 L12.4057,23.2595 C12.3958,23.2564 12.387,23.259 12.3821,23.2649 L12.378,23.2758 L12.3609,23.7031 L12.3659,23.7235 L12.3769,23.7357 L12.4805,23.8097 L12.4953,23.8136 L12.5071,23.8097 L12.6107,23.7357 L12.6233,23.7197 L12.6267,23.7031 L12.6096,23.2758 C12.6076,23.2657 12.601,23.2593 12.5935,23.2578 Z M12.8584,23.1453 L12.8445,23.1473 L12.6598,23.2397 L12.6499,23.2499 L12.6472,23.2611 L12.6651,23.6906 L12.6699,23.7034 L12.6784,23.7105 L12.8793,23.8032 C12.8914,23.8069 12.9022,23.803 12.9078,23.7952 L12.9118,23.7812 L12.8777,23.1665 C12.8753,23.1546 12.8674,23.147 12.8584,23.1453 Z M12.143,23.1473 C12.1332,23.1424 12.1222,23.1453 12.1156,23.1526 L12.1099,23.1665 L12.0758,23.7812 C12.0751,23.7927 12.0828,23.8019 12.0926,23.8046 L12.1083,23.8032 L12.3092,23.7105 L12.3186,23.7024 L12.3225,23.6906 L12.3404,23.2611 L12.3372,23.2485 L12.3278,23.2397 L12.143,23.1473 Z"/><path fill="#09244B" d="M19,4 C20.6569,4 22,5.34315 22,7 L22,17 C22,18.6569 20.6569,20 19,20 L5,20 C3.34315,20 2,18.6569 2,17 L2,7 C2,5.34315 3.34315,4 5,4 L19,4 Z M9.21922,8 L8.78078,8 C7.91702471,8 7.15760048,8.55327003 6.8856705,9.36064287 L6.84049,9.51493 L5.52986,14.7575 C5.39591,15.2933 5.72167,15.8362 6.25746,15.9701 C6.75498857,16.0945286 7.25866495,15.8224969 7.43532817,15.354009 L7.47014,15.2425 L7.78078,14 L10.2192,14 L10.5299,15.2425 C10.6638,15.7783 11.2067,16.1041 11.7425,15.9701 C12.2400286,15.8457643 12.5564857,15.3687704 12.4918676,14.8722713 L12.4701,14.7575 L11.1595,9.51493 C10.9369,8.62459 10.137,8 9.21922,8 Z M18,8 C17.48715,8 17.0644908,8.38604429 17.0067275,8.88337975 L17,9 L17,10.1707 C16.6872,10.0602 16.3506,10 16,10 C14.3431,10 13,11.3431 13,13 C13,14.597725 14.2488774,15.903664 15.8237227,15.9949075 L16,16 L18,16 C18.51285,16 18.9355092,15.613973 18.9932725,15.1166239 L19,15 L19,9 C19,8.44772 18.5523,8 18,8 Z M16,12 C16.51285,12 16.9355092,12.386027 16.9932725,12.8833761 L17,13 L17,14 L16,14 C15.4477,14 15,13.5523 15,13 C15,12.4477 15.4477,12 16,12 Z M9.21922,10 L9.71922,12 L8.28078,12 L8.78078,10 L9.21922,10 Z"/></g></svg>

<svg xmlns="http://www.w3.org/2000/svg" width="24" height="24"><g fill="none"><path d="M24 0v24H0V0zM12.594 23.258l-.012.002-.071.035-.02.004-.014-.004-.071-.036c-.01-.003-.019 0-.024.006l-.004.01-.017.428.005.02.01.013.104.074.015.004.012-.004.104-.074.012-.016.004-.017-.017-.427c-.002-.01-.009-.017-.016-.018m.264-.113-.014.002-.184.093-.01.01-.003.011.018.43.005.012.008.008.201.092c.012.004.023 0 .029-.008l.004-.014-.034-.614c-.003-.012-.01-.02-.02-.022m-.715.002a.023.023 0 0 0-.027.006l-.006.014-.034.614c0 .012.007.02.017.024l.015-.002.201-.093.01-.008.003-.011.018-.43-.003-.012-.01-.01z"/><path fill="#09244B" d="M19 4a3 3 0 0 1 3 3v10a3 3 0 0 1-3 3H5a3 3 0 0 1-3-3V7a3 3 0 0 1 3-3zM9.22 8h-.44a2 2 0 0 0-1.894 1.36l-.046.155-1.31 5.243a1 1 0 0 0 1.905.596l.035-.111L7.78 14h2.44l.31 1.242a1 1 0 0 0 1.962-.37l-.022-.114-1.31-5.243A2 2 0 0 0 9.22 8M18 8a1 1 0 0 0-.993.883L17 9v1.17a3 3 0 1 0-1.176 5.824L16 16h2a1 1 0 0 0 .993-.883L19 15V9a1 1 0 0 0-1-1m-2 4a1 1 0 0 1 .993.883L17 13v1h-1a1 1 0 1 1 0-2m-6.78-2 .5 2H8.28l.5-2z"/></g></svg>
